X: 1
T: Jockey's Ta'en the Pairtin Kiss
R: air
Z: John Chambers <jc:trillian.mit.edu>
M: C|
L: 1/8
K: D
A2 \
| "D"D3E "Bm"F2F2 | "Em"F2ED "A7"E4 | "D"D3E F2ED | F2A2 d3e \
| "Bm"f3e d2cB | "Em"ABAF "A7"E4 | "Bm"d2cB "G"ABdF | "A7"F2E2 "D"D2 |]
A2 \
| "D"d3e "Bm"f2f2 | "Em"f2ed "A7"e4 |  "D"d3f "Em"e2fd | "A7"c2B2 A4 \
| "D"fedB ABdF | "Em"GFED "A7"E4 | "Bm"d2cB "G"ABdF | "A7"F2E2 "D"D2 |]
